src/topics/icons/c++.svg

<svg height="288" preserveAspectRatio="xMidYMid" viewBox="0 0 256 288" width="256" xmlns="http://www.w3.org/2000/svg"><path d="m255.569 84.72c-.002-4.83-1.035-9.098-3.124-12.761-2.052-3.602-5.125-6.621-9.247-9.008-34.025-19.619-68.083-39.178-102.097-58.817-9.17-5.294-18.061-5.101-27.163.269-13.543 7.987-81.348 46.834-101.553 58.537-8.321 4.817-12.37 12.189-12.372 21.771-.013 39.455 0 78.909-.013 118.365.002 4.724.991 8.909 2.988 12.517 2.053 3.711 5.169 6.813 9.386 9.254 20.206 11.703 88.02 50.547 101.56 58.536 9.106 5.373 17.997 5.565 27.17.269 34.015-19.64 68.075-39.198 102.105-58.817 4.217-2.44 7.333-5.544 9.386-9.252 1.994-3.608 2.985-7.793 2.987-12.518 0 0 0-78.889-.013-118.345" fill="#5c8dbc"/><path d="m128.182 143.509-125.194 72.084c2.053 3.711 5.169 6.813 9.386 9.254 20.206 11.703 88.02 50.547 101.56 58.536 9.106 5.373 17.997 5.565 27.17.269 34.015-19.64 68.075-39.198 102.105-58.817 4.217-2.44 7.333-5.544 9.386-9.252z" fill="#1a4674"/><path d="m91.101 164.861c7.285 12.718 20.98 21.296 36.69 21.296 15.807 0 29.58-8.687 36.828-21.541l-36.437-21.107z" fill="#1a4674"/><path d="m255.569 84.72c-.002-4.83-1.035-9.098-3.124-12.761l-124.263 71.55 124.413 72.074c1.994-3.608 2.985-7.793 2.987-12.518 0 0 0-78.889-.013-118.345" fill="#1b598e"/><g fill="#fff"><path d="m248.728 148.661h-9.722v9.724h-9.724v-9.724h-9.721v-9.721h9.721v-9.722h9.724v9.722h9.722z"/><path d="m213.253 148.661h-9.721v9.724h-9.722v-9.724h-9.722v-9.721h9.722v-9.722h9.722v9.722h9.721z"/><path d="m164.619 164.616c-7.248 12.854-21.021 21.541-36.828 21.541-15.71 0-29.405-8.578-36.69-21.296-3.539-6.18-5.574-13.335-5.574-20.968 0-23.341 18.923-42.263 42.264-42.263 15.609 0 29.232 8.471 36.553 21.059l36.941-21.272c-14.683-25.346-42.096-42.398-73.494-42.398-46.876 0-84.875 38-84.875 84.874 0 15.378 4.091 29.799 11.241 42.238 14.646 25.48 42.137 42.637 73.634 42.637 31.555 0 59.089-17.226 73.714-42.781z"/></g></svg>

<?xml version="1.0" encoding="UTF-8" standalone="no"?>
<svg width="256px" height="288px" viewBox="0 0 256 288" version="1.1" xmlns="http://www.w3.org/2000/svg" xmlns:xlink="http://www.w3.org/1999/xlink" preserveAspectRatio="xMidYMid">
	<g>
		<path d="M255.569,84.72 C255.567,79.89 254.534,75.622 252.445,71.959 C250.393,68.357 247.32,65.338 243.198,62.951 C209.173,43.332 175.115,23.773 141.101,4.134 C131.931,-1.16 123.04,-0.967 113.938,4.403 C100.395,12.39 32.59,51.237 12.385,62.94 C4.064,67.757 0.015,75.129 0.013,84.711 C0,124.166 0.013,163.62 0,203.076 C0.002,207.8 0.991,211.985 2.988,215.593 C5.041,219.304 8.157,222.406 12.374,224.847 C32.58,236.55 100.394,275.394 113.934,283.383 C123.04,288.756 131.931,288.948 141.104,283.652 C175.119,264.012 209.179,244.454 243.209,224.835 C247.426,222.395 250.542,219.291 252.595,215.583 C254.589,211.975 255.58,207.79 255.582,203.065 C255.582,203.065 255.582,124.176 255.569,84.72" fill="#5C8DBC"></path>
		<path d="M128.182,143.509 L2.988,215.593 C5.041,219.304 8.157,222.406 12.374,224.847 C32.58,236.55 100.394,275.394 113.934,283.383 C123.04,288.756 131.931,288.948 141.104,283.652 C175.119,264.012 209.179,244.454 243.209,224.835 C247.426,222.395 250.542,219.291 252.595,215.583 L128.182,143.509" fill="#1A4674"></path>
		<path d="M91.101,164.861 C98.386,177.579 112.081,186.157 127.791,186.157 C143.598,186.157 157.371,177.47 164.619,164.616 L128.182,143.509 L91.101,164.861" fill="#1A4674"></path>
		<path d="M255.569,84.72 C255.567,79.89 254.534,75.622 252.445,71.959 L128.182,143.509 L252.595,215.583 C254.589,211.975 255.58,207.79 255.582,203.065 C255.582,203.065 255.582,124.176 255.569,84.72" fill="#1B598E"></path>
		<path d="M248.728,148.661 L239.006,148.661 L239.006,158.385 L229.282,158.385 L229.282,148.661 L219.561,148.661 L219.561,138.94 L229.282,138.94 L229.282,129.218 L239.006,129.218 L239.006,138.94 L248.728,138.94 L248.728,148.661" fill="#FFFFFF"></path>
		<path d="M213.253,148.661 L203.532,148.661 L203.532,158.385 L193.81,158.385 L193.81,148.661 L184.088,148.661 L184.088,138.94 L193.81,138.94 L193.81,129.218 L203.532,129.218 L203.532,138.94 L213.253,138.94 L213.253,148.661" fill="#FFFFFF"></path>
		<path d="M164.619,164.616 C157.371,177.47 143.598,186.157 127.791,186.157 C112.081,186.157 98.386,177.579 91.101,164.861 C87.562,158.681 85.527,151.526 85.527,143.893 C85.527,120.552 104.45,101.63 127.791,101.63 C143.4,101.63 157.023,110.101 164.344,122.689 L201.285,101.417 C186.602,76.071 159.189,59.019 127.791,59.019 C80.915,59.019 42.916,97.019 42.916,143.893 C42.916,159.271 47.007,173.692 54.157,186.131 C68.803,211.611 96.294,228.768 127.791,228.768 C159.346,228.768 186.88,211.542 201.505,185.987 L164.619,164.616" fill="#FFFFFF"></path>
	</g>
</svg>
